static/images/logo-7.svg

<?xml version="1.0" encoding="UTF-8"?>
<svg width="260px" height="54px" viewBox="0 0 260 54" version="1.1" xmlns="http://www.w3.org/2000/svg" xmlns:xlink="http://www.w3.org/1999/xlink">
    <title>logo-7</title>
    <defs>
        <path d="M16.27452,31.5252 C18.54657,33.79644 18.50931,37.48356 16.27452,39.7548 C13.96521,42.02685 10.31616,41.98959 8.0441343,39.71754 C3.2772843,34.91343 0.33536187,28.32246 0.37262187,21.02274 C0.40988187,13.72383 3.3890643,7.13205 8.15589,2.4024519 C10.4652,0.1304019 14.11425,0.1676619 16.3863,2.43891 C18.65754,4.71096 18.62109,8.36082 16.34904,10.63206 C13.66794,13.27671 11.99205,16.96383 11.99205,21.06 C11.95479,25.11891 13.63068,28.84329 16.27452,31.5252 Z" id="path-1"></path>
        <path d="M10.67904,16.30206 C8.40699,18.53685 4.72068,18.53685 2.48589,16.2648 C0.2138562,13.9563 0.2511162,10.30644 2.52315,8.0352 C7.29,3.26754 13.91904,0.36287838 21.18069,0.36287838 C28.44315,0.40013838 35.03493,3.37932 39.80178,8.18343 C42.07383,10.49274 42.03657,14.1426 39.76452,16.41384 C37.49247,18.68589 33.84342,18.64863 31.57137,16.37658 C28.92753,13.69548 25.24041,12.01959 21.14343,12.01959 C17.08452,11.98233 13.36014,13.65822 10.67904,16.30206 Z" id="path-3"></path>
        <path d="M31.53411,2.43891 C33.80616,0.16767 37.45521,0.20493 39.76452,2.47617 C42.03657,4.78548 41.99931,8.43534 39.72726,10.70658 C34.92315,15.47343 28.33137,18.41616 21.03246,18.3789 C13.77,18.34164 7.17822,15.36246 2.4113862,10.55754 C0.1393362,8.24904 0.1765962,4.59918 2.44863,2.32794 C4.72068,0.05589 8.36973,0.09315 10.64178,2.3652 C13.28562,5.0463 16.97274,6.72219 21.06891,6.72219 C25.12863,6.75945 28.85301,5.08356 31.53411,2.43891 Z" id="path-5"></path>
        <path d="M10.67904,10.63206 C8.40699,12.90411 4.72068,12.86685 2.44863,10.5948 C0.1766043,8.32356 0.2138643,4.63644 2.48589,2.4024519 C4.75794,0.1304019 8.44425,0.1676619 10.7163,2.43891 C12.98754,4.6737 12.95109,8.36082 10.67904,10.63206 Z" id="path-7"></path>
        <path d="M10.56726,10.55754 C8.29521,12.82959 4.6089,12.79233 2.3368743,10.52109 C0.0648243,8.24904 0.1020843,4.56192 2.3741343,2.32794 C4.64616,0.05589 8.33247,0.09315 10.60452,2.3652 C12.87657,4.63644 12.83931,8.32356 10.56726,10.55754 Z" id="path-9"></path>
        <path d="M17.08452,27.56754 C18.76041,26.30151 18.98397,27.00945 20.39904,28.42452 C21.10617,29.13246 23.04288,30.36123 21.77685,31.4037 C19.13301,33.56397 16.74918,34.53192 13.36014,34.53192 C5.72589,34.49466 0.32562,28.79712 0.77274,21.23658 C0.95904,17.84754 2.29959,14.6448 4.94343,12.44808 C7.36452,10.39959 10.38096,9.50616 13.54644,9.58068 C15.14781,9.61794 16.56288,9.84069 18.05247,10.47411 C19.02123,10.84671 19.95192,11.29383 20.77164,11.92644 C22.44753,13.22973 21.66507,13.97493 20.36178,15.27822 C20.0637,15.5763 19.76562,15.87438 19.5048,16.17246 C18.83493,16.84233 18.38781,17.32671 17.49438,16.69329 C15.78123,15.50178 13.62096,14.86836 11.57247,15.39 C4.98069,17.06589 5.27877,28.79712 13.36014,28.83438 C14.62617,28.87164 16.04205,28.35 17.08452,27.56754 Z M200.31219,34.68096 C199.1952,34.68096 198.30096,33.78753 198.30096,32.66973 L198.41274,6.67521 C198.41274,5.55822 199.30617,4.66479 200.42397,4.66479 L202.58343,4.66479 C203.70123,4.66479 204.59466,5.55822 204.59466,6.67521 L204.48288,32.66973 C204.48288,33.78753 203.58945,34.68096 202.47246,34.68096 L200.31219,34.68096 Z M188.99082,31.66452 C186.64425,33.86205 184.41027,35.0163 181.09575,35.0163 C174.39219,34.97904 171.18945,29.42973 171.18945,23.21055 L171.22671,12.63438 C171.22671,11.51658 172.12014,10.62315 173.23794,10.62315 L175.3974,10.62315 C176.5152,10.62315 177.40863,11.51658 177.40863,12.63438 L177.37137,23.21055 C177.37137,26.67411 179.23356,29.39247 182.88342,29.39247 C186.49521,29.39247 188.76726,26.33877 188.80452,22.91247 L188.80452,19.15164 C188.76726,19.0026 188.76726,18.85356 188.76726,18.70452 L188.80452,12.7089 C188.80452,11.5911 189.69795,10.69767 190.81575,10.69767 L192.97521,10.69767 C194.09301,10.69767 194.98644,11.5911 194.98644,12.7089 L194.91192,32.66973 C194.91192,33.75027 194.01849,34.6437 192.90069,34.6437 L191.07657,34.6437 C189.95877,34.6437 189.17712,33.71301 189.1026,32.66973 L188.99082,31.66452 Z M163.29438,10.69767 L167.46507,10.69767 C168.58206,10.69767 169.43904,11.62836 169.43904,12.74616 L169.43904,14.12397 C169.43904,15.2037 168.5448,16.1352 167.42781,16.1352 L163.25712,16.1352 L163.1826,32.55795 C163.1826,33.67575 162.28836,34.56918 161.17137,34.56918 L159.0111,34.56918 C157.89411,34.56918 157.00068,33.67575 157.00068,32.55795 L157.0752,9.84069 C157.0752,4.88754 159.90534,0.9776781 164.97027,0.5305581 C165.11931,0.5305581 165.23028,0.4932981 165.37932,0.4932981 C165.6774,0.4560381 165.97548,0.4932981 166.27356,0.4932981 L168.21027,0.4932981 C169.32726,0.4932981 170.18343,1.4247981 170.18343,2.5417881 L170.18343,3.80781 C170.18343,4.88754 169.29,5.81904 168.17301,5.81904 L166.75794,5.81904 C166.72068,5.81904 166.68342,5.81904 166.6089,5.81904 C164.22507,5.81904 163.21986,7.64397 163.1826,9.87795 L163.29438,10.69767 Z M148.32315,10.62315 L152.9037,10.62315 C153.98343,10.62315 154.87767,11.51658 154.87767,12.63438 L154.87767,14.01219 C154.87767,15.09192 153.98343,15.98616 152.86644,15.98616 L148.28589,15.98616 L148.24863,26.04069 C148.24863,27.9774 149.17932,29.0952 151.11603,29.0952 L152.04753,29.0952 C153.12726,29.0952 154.02069,29.98863 154.02069,31.10562 L154.02069,32.48343 C154.02069,33.56397 153.12726,34.4574 152.01027,34.4574 L150.25986,34.4574 C149.92452,34.4574 149.62644,34.4574 149.2911,34.42014 C144.33795,34.0848 142.14123,30.88206 142.14123,26.04069 C142.17849,19.52343 142.17849,13.04343 142.21575,6.52617 C142.21575,5.44644 143.10918,4.55301 144.22617,4.55301 L146.34918,4.55301 C147.42891,4.55301 148.32315,5.44644 148.32315,6.56343 L148.32315,10.62315 Z M82.07082,10.36233 L86.65137,10.36233 C87.7311,10.36233 88.62534,11.25657 88.62534,12.37356 L88.62534,13.75137 C88.62534,14.8311 87.7311,15.72534 86.61411,15.72534 L82.03356,15.72534 L82.03356,25.78068 C82.03356,27.71658 82.96425,28.83438 84.90096,28.83438 L85.83246,28.83438 C86.91219,28.83438 87.80562,29.72781 87.80562,30.8448 L87.80562,32.22342 C87.80562,33.30315 86.91219,34.19658 85.7952,34.19658 L84.41658,34.19658 C79.01712,34.15932 75.8889,31.85082 75.8889,25.78068 C75.92616,19.26342 75.92616,12.78342 75.96342,6.26616 C75.96342,5.18562 76.85685,4.29219 77.97384,4.29219 L80.09685,4.29219 C81.17658,4.29219 82.07082,5.18562 82.07082,6.30342 L82.07082,10.36233 Z M55.18206,13.19247 C57.37959,11.14479 59.76342,9.84069 62.85438,9.84069 C69.55794,9.87795 73.02069,15.35274 72.98343,21.64644 L72.94617,32.22342 C72.94617,33.34041 72.05274,34.23384 70.93575,34.23384 L68.77548,34.23384 C67.65849,34.23384 66.76425,33.34041 66.76425,32.22342 L66.80151,21.72096 C66.80151,18.2574 64.93932,15.53904 61.29027,15.53904 C57.67767,15.53904 55.40562,18.55548 55.36836,21.98178 L55.3311,32.22342 C55.3311,33.30315 54.43767,34.19658 53.32068,34.19658 L51.19767,34.19658 C50.11794,34.19658 49.2237,33.30315 49.2237,32.18616 C49.26096,25.81794 49.26096,19.41246 49.29822,13.04343 L49.29822,12.18726 C49.29822,11.10753 50.19165,10.21329 51.30945,10.21329 L53.13438,10.21329 C54.25137,10.21329 55.03383,11.14479 55.10754,12.18726 L55.18206,13.19247 Z M121.54617,13.45329 C123.7437,11.4048 126.12753,10.10151 129.21849,10.10151 C135.92205,10.13877 139.3848,15.61356 139.34754,21.90726 L139.31028,32.48343 C139.31028,33.60123 138.41685,34.49466 137.29986,34.49466 L135.13959,34.49466 C134.0226,34.49466 133.12836,33.60123 133.12836,32.48343 L133.16562,21.98178 C133.16562,18.51822 131.30343,15.79986 127.65438,15.79986 C124.04178,15.79986 121.76973,18.8163 121.73247,22.2426 L121.69521,32.48343 C121.69521,33.56397 120.80178,34.4574 119.68479,34.4574 L117.56178,34.4574 C116.48205,34.4574 115.58781,33.56397 115.58781,32.44617 L115.66233,12.44808 C115.66233,11.36754 116.55657,10.47411 117.67356,10.47411 L119.49849,10.47411 C120.61548,10.47411 121.39794,11.4048 121.47246,12.44808 L121.54617,13.45329 Z M34.92315,9.65500294 C42.14754,9.69246 47.39877,14.98014 47.361707,22.16808 C47.32425,29.50425 42.1848,34.6437 34.84863,34.6066413 C27.51246,34.56918 22.44753,29.39247 22.4845858,22.09356 C22.52205,14.86836 27.66069,9.61794 34.92315,9.65500294 Z M95.21712,24.58836 C95.73795,27.94014 98.94069,29.31795 102.06891,29.35521 C103.55931,29.35521 105.27246,28.98342 106.61301,28.35 C106.83657,28.23822 107.05932,28.1637 107.28288,28.01466 C108.02808,27.6048 108.69795,27.34479 109.36863,28.01466 C109.74123,28.38726 110.07657,28.75986 110.44836,29.0952 C110.7837,29.42973 111.11904,29.76507 111.41712,30.17493 C112.42233,31.44096 111.7152,31.73904 110.56014,32.52069 C108.1026,34.15932 104.89986,34.97904 101.95794,34.97904 C94.06206,34.94178 88.8489,30.13767 88.8489,22.16808 C88.88616,14.6448 94.09932,9.6552 101.6226,9.69225274 C109.29411,9.72891 113.6511,14.23575 113.76288,21.90726 C113.80014,23.99301 113.87466,24.66288 111.7152,24.66288 L95.21712,24.58836 Z M34.92315,15.27822 C31.01247,15.27822 28.66671,18.40644 28.62945,22.13082 C28.62945,25.89246 30.93795,28.94616 34.88589,28.94616 C38.83383,28.94616 41.17959,25.92891 41.17959,22.16808 C41.17959,18.55548 38.68479,15.27822 34.92315,15.27822 Z M95.36616,19.41246 L107.73,19.44891 C107.28288,16.35795 104.71356,15.12918 101.77164,15.12918 C98.82891,15.12918 96.29685,16.50699 95.36616,19.41246 Z" id="path-11"></path>
    </defs>
    <g id="Page-1" stroke="none" stroke-width="1" fill="none" fill-rule="evenodd">
        <g id="logo-7">
            <g id="Clipped" transform="translate(0.000000, 5.670000)">
                <mask id="mask-2" fill="white">
                    <use xlink:href="#path-1"></use>
                </mask>
                <g id="Path"></g>
                <polygon id="Path" fill="#BCBCBC" mask="url(#mask-2)" points="0.34022349 41.5206 18.1278 41.5206 18.1278 0.6965919 0.34022349 0.6965919"></polygon>
            </g>
            <g id="Clipped" transform="translate(5.670000, 0.000000)">
                <mask id="mask-4" fill="white">
                    <use xlink:href="#path-3"></use>
                </mask>
                <g id="Path"></g>
                <polygon id="Path" fill="#BCBCBC" mask="url(#mask-4)" points="0.7938243 18.1278 41.5206 18.1278 41.5206 0.34018623 0.7938243 0.34018623"></polygon>
            </g>
            <g id="Clipped" transform="translate(5.670000, 34.830000)">
                <mask id="mask-6" fill="white">
                    <use xlink:href="#path-5"></use>
                </mask>
                <g id="Path"></g>
                <polygon id="Path" fill="#BCBCBC" mask="url(#mask-6)" points="0.6966243 18.387 41.5206 18.387 41.5206 0.5994 0.6966243 0.5994"></polygon>
            </g>
            <g id="Clipped" transform="translate(5.670000, 5.670000)">
                <mask id="mask-8" fill="white">
                    <use xlink:href="#path-7"></use>
                </mask>
                <g id="Path"></g>
                <polygon id="Path" fill="#FFFFFF" mask="url(#mask-8)" points="0.6966243 12.3606 12.4578 12.3606 12.4578 0.6965919 0.6966243 0.6965919"></polygon>
            </g>
            <g id="Clipped" transform="translate(5.670000, 34.830000)">
                <mask id="mask-10" fill="white">
                    <use xlink:href="#path-9"></use>
                </mask>
                <g id="Path"></g>
                <polygon id="Path" fill="#FFFFFF" mask="url(#mask-10)" points="0.5994324 12.2634 12.3606 12.2634 12.3606 0.5994 0.5994324 0.5994"></polygon>
            </g>
            <g id="Clipped" transform="translate(54.270000, 4.860000)">
                <mask id="mask-12" fill="white">
                    <use xlink:href="#path-11"></use>
                </mask>
                <g id="Shape"></g>
                <polygon id="Path" fill="#FFFFFF" mask="url(#mask-12)" points="0.6966 35.0406 204.6222 35.0406 204.6222 0.4374081 0.6966 0.4374081"></polygon>
            </g>
        </g>
    </g>
</svg>

<svg width="260" height="54" viewBox="0 0 260 54" xmlns="http://www.w3.org/2000/svg" xmlns:xlink="http://www.w3.org/1999/xlink"><defs><path d="M16.275 31.525c2.272 2.271 2.234 5.959 0 8.23a5.821 5.821 0 01-8.23-.037C3.276 34.913.334 28.322.372 21.023a26.35 26.35 0 017.783-18.62 5.822 5.822 0 018.23.036c2.272 2.272 2.235 5.922-.037 8.193a14.599 14.599 0 00-4.357 10.428c-.037 4.059 1.639 7.783 4.283 10.465z" id="a"/><path d="M10.679 16.302c-2.272 2.235-5.958 2.235-8.193-.037a5.82 5.82 0 01.037-8.23C7.29 3.268 13.92.363 21.181.363 28.443.4 35.035 3.379 39.8 8.183a5.821 5.821 0 01-.036 8.23c-2.273 2.273-5.922 2.236-8.194-.036a14.596 14.596 0 00-10.428-4.357c-4.058-.038-7.783 1.638-10.464 4.282z" id="c"/><path d="M31.534 2.439c2.272-2.271 5.921-2.234 8.23.037a5.821 5.821 0 01-.037 8.23c-4.804 4.767-11.396 7.71-18.695 7.673-7.262-.037-13.854-3.017-18.62-7.821a5.82 5.82 0 01.037-8.23C4.72.056 8.369.093 10.642 2.365a14.595 14.595 0 0010.427 4.357c4.06.037 7.784-1.638 10.465-4.283z" id="e"/><path d="M10.679 10.632c-2.272 2.272-5.958 2.235-8.23-.037C.177 8.324.214 4.636 2.486 2.402 4.758.13 8.444.168 10.716 2.44c2.272 2.235 2.235 5.922-.037 8.193z" id="g"/><path d="M10.567 10.558c-2.272 2.272-5.958 2.234-8.23-.037C.065 8.25.102 4.561 2.374 2.328c2.272-2.272 5.958-2.235 8.23.037 2.273 2.271 2.235 5.959-.037 8.193z" id="i"/><path d="M17.085 27.568c1.675-1.266 1.899-.559 3.314.857.707.707 2.644 1.936 1.378 2.979-2.644 2.16-5.028 3.128-8.417 3.128C5.726 34.495.326 28.797.773 21.237c.186-3.39 1.527-6.592 4.17-8.789 2.422-2.048 5.438-2.942 8.603-2.867 1.602.037 3.017.26 4.506.893.97.373 1.9.82 2.72 1.452 1.676 1.304.893 2.049-.41 3.352-.298.298-.596.596-.857.894-.67.67-1.117 1.155-2.01.521-1.714-1.191-3.874-1.825-5.923-1.303-6.591 1.676-6.293 13.407 1.788 13.444 1.266.038 2.682-.484 3.725-1.266zm183.227 7.113a2.003 2.003 0 01-2.011-2.011l.112-25.995c0-1.117.893-2.01 2.011-2.01h2.16c1.117 0 2.01.893 2.01 2.01l-.111 25.995a2.002 2.002 0 01-2.01 2.011h-2.16zm-11.321-3.016c-2.347 2.197-4.58 3.351-7.895 3.351-6.704-.037-9.907-5.586-9.907-11.805l.038-10.577c0-1.117.893-2.01 2.01-2.01h2.16c1.118 0 2.012.893 2.012 2.01l-.038 10.577c0 3.463 1.863 6.181 5.512 6.181 3.612 0 5.884-3.053 5.922-6.48v-3.76c-.038-.15-.038-.298-.038-.447l.038-5.996c0-1.118.893-2.011 2.01-2.011h2.16c1.118 0 2.011.893 2.011 2.01l-.074 19.962c0 1.08-.894 1.974-2.011 1.974h-1.824c-1.118 0-1.9-.931-1.974-1.974l-.112-1.005zm-25.697-20.967h4.171c1.117 0 1.974.93 1.974 2.048v1.378c0 1.08-.894 2.011-2.011 2.011h-4.17l-.075 16.423a2.003 2.003 0 01-2.012 2.011h-2.16a2.002 2.002 0 01-2.01-2.011l.074-22.717c0-4.953 2.83-8.863 7.895-9.31.15 0 .26-.038.41-.038.297-.037.595 0 .894 0h1.936c1.117 0 1.973.932 1.973 2.049v1.266c0 1.08-.893 2.011-2.01 2.011h-1.565c-2.383 0-3.388 1.825-3.425 4.059l.111.82zm-14.97-.075h4.58c1.08 0 1.974.894 1.974 2.011v1.378c0 1.08-.895 1.974-2.012 1.974h-4.58l-.037 10.055c0 1.936.93 3.054 2.867 3.054h.932c1.08 0 1.973.894 1.973 2.01v1.378c0 1.081-.894 1.974-2.01 1.974h-1.751c-.335 0-.634 0-.969-.037-4.953-.335-7.15-3.538-7.15-8.38.037-6.517.037-12.997.075-19.514 0-1.08.893-1.973 2.01-1.973h2.123c1.08 0 1.974.893 1.974 2.01v4.06zm-66.253-.26h4.58c1.08 0 1.974.894 1.974 2.01v1.378c0 1.08-.894 1.974-2.01 1.974h-4.581v10.056c0 1.936.93 3.053 2.867 3.053h.931c1.08 0 1.974.894 1.974 2.01v1.38c0 1.08-.894 1.973-2.01 1.973h-1.38c-5.399-.038-8.527-2.346-8.527-8.416.037-6.518.037-12.998.074-19.515 0-1.08.894-1.974 2.01-1.974h2.124c1.08 0 1.974.894 1.974 2.011v4.06zm-26.889 2.83c2.198-2.048 4.581-3.352 7.672-3.352 6.704.037 10.167 5.512 10.13 11.805l-.038 10.577c0 1.117-.893 2.01-2.01 2.01h-2.16a2.003 2.003 0 01-2.012-2.01l.038-10.502c0-3.464-1.863-6.182-5.512-6.182-3.612 0-5.884 3.016-5.922 6.443l-.037 10.241c0 1.08-.893 1.974-2.01 1.974h-2.123c-1.08 0-1.974-.894-1.974-2.01.037-6.37.037-12.775.074-19.144v-.856c0-1.08.894-1.974 2.011-1.974h1.825c1.117 0 1.9.932 1.974 1.974l.074 1.005zm66.364.26c2.198-2.048 4.582-3.351 7.672-3.351 6.704.037 10.167 5.512 10.13 11.805l-.038 10.576a2.002 2.002 0 01-2.01 2.012h-2.16a2.003 2.003 0 01-2.012-2.012l.038-10.501c0-3.464-1.863-6.182-5.512-6.182-3.612 0-5.884 3.016-5.922 6.443l-.037 10.24c0 1.081-.893 1.974-2.01 1.974h-2.123c-1.08 0-1.974-.893-1.974-2.01l.074-19.999c0-1.08.895-1.974 2.012-1.974h1.824c1.117 0 1.9.93 1.974 1.974l.074 1.005zM34.923 9.655c7.225.037 12.476 5.325 12.439 12.513-.038 7.336-5.177 12.476-12.513 12.439-7.337-.038-12.401-5.215-12.364-12.513.037-7.226 5.176-12.476 12.438-12.439zm60.294 14.933c.52 3.352 3.724 4.73 6.852 4.767 1.49 0 3.203-.372 4.544-1.005.224-.112.446-.186.67-.335.745-.41 1.415-.67 2.086 0 .372.372.708.745 1.08 1.08.335.335.67.67.968 1.08 1.005 1.266.298 1.564-.857 2.346-2.457 1.638-5.66 2.458-8.602 2.458-7.896-.037-13.11-4.841-13.11-12.81.038-7.524 5.251-12.514 12.775-12.477 7.671.037 12.028 4.544 12.14 12.215.037 2.086.112 2.756-2.048 2.756l-16.498-.075zm-60.294-9.31c-3.91 0-6.256 3.128-6.294 6.853 0 3.761 2.309 6.815 6.257 6.815 3.948 0 6.294-3.017 6.294-6.778 0-3.613-2.495-6.89-6.257-6.89zm60.443 4.134l12.364.037c-.447-3.091-3.016-4.32-5.958-4.32-2.943 0-5.475 1.378-6.406 4.283z" id="k"/></defs><g fill="none" fill-rule="evenodd"><g transform="translate(0 5.67)"><mask id="b" fill="#fff"><use xlink:href="#a"/></mask><path fill="#BCBCBC" mask="url(#b)" d="M.34 41.52h17.788V.698H.34z"/></g><g transform="translate(5.67)"><mask id="d" fill="#fff"><use xlink:href="#c"/></mask><path fill="#BCBCBC" mask="url(#d)" d="M.794 18.128H41.52V.34H.794z"/></g><g transform="translate(5.67 34.83)"><mask id="f" fill="#fff"><use xlink:href="#e"/></mask><path fill="#BCBCBC" mask="url(#f)" d="M.697 18.387H41.52V.599H.697z"/></g><g transform="translate(5.67 5.67)"><mask id="h" fill="#fff"><use xlink:href="#g"/></mask><path fill="#FFF" mask="url(#h)" d="M.697 12.36h11.76V.698H.698z"/></g><g transform="translate(5.67 34.83)"><mask id="j" fill="#fff"><use xlink:href="#i"/></mask><path fill="#FFF" mask="url(#j)" d="M.6 12.263h11.76V.6H.6z"/></g><g transform="translate(54.27 4.86)"><mask id="l" fill="#fff"><use xlink:href="#k"/></mask><path fill="#FFF" mask="url(#l)" d="M.697 35.04h203.925V.438H.697z"/></g></g></svg>
